X:1139
T:Princess of Wales's Minuet.
M:3/4
L:1/4
Q:1/4=144
Z:Jack Campin * www.campin.me.uk * 2009
K:G
g g g|({e}d2)     G/B/|{B}A G F|({F}G2)   z|d d c/A/|d2  B/G/|D   c  B/>c/|({B}A2)B:|
A A A|   (A/B/) G G   |   B B B|   (B/c/)AA|G B d   |g>d g/e/|d/c/B TA    |    G2 z:|

